!!!COM: Chopin, Fr&egrave;d&egrave;ric
!!!OTL: Waltz in A-flat major
!!!SCT: B. 21
**kern	**kern
*staff2	*staff1
*Ipiano	*Ipiano
*clefF4	*clefG2
*k[b-e-a-d-]	*k[b-e-a-d-]
*M3/8	*M3/8
*MM150	*MM150
=1-	=1-
8r	8dd-\L
8GG\L	16dd-\L
.	16cc\
8E-\J 8B-\ 8d-\	16ee-\
.	16dd-\JJ
=2	=2
8E-\L 8B-\ 8d-\	16ccc\LL
.	16bb-\
8GG\	16dd-\
.	16cc\
8E-\J 8B-\ 8d-\	16ee-\
.	16dd-\JJ
=3	=3
8E-\L 8B-\ 8d-\	16ccc\LL
.	16bb-\
8AA-\	16cc\
.	16cc-\
8E-\J 8A-\ 8c\	16dd-\
.	16ccn\JJ
=4	=4
8E-\L 8A-\ 8c\	16bb-\LL
.	16aa-\
8AA-\	16cc\
.	16cc-\
8E-\J 8A-\ 8c\	16dd-\
.	16ccn\JJ
=5	=5
8E-\L 8A-\ 8c\	16bb-\LL
.	16aa-\
8EE-\	16b-\
.	16an\
8E-\J 8G\ 8d-\	16cc\
.	16b-\JJ
=6	=6
8E-\L 8G\ 8d-\	16dd-\LL
.	16cc\
8EE-\	16ee-\
.	16dd-\
8E-\J 8B-\ 8d-\	16gg\
.	16ff\JJ
=7	=7
8E-\L 8B-\ 8d-\	16dd-\LL
.	16g\
8AA-\	16a-\
.	16an\
8E-\J 8A-\ 8c\	16b-\
.	16cc-\JJ
=8	=8
8E-\L 8A-\ 8c\	16cc/LL
.	16a-/J
8AA-\	8e-/J
8E-\J 8A-\ 8c\	8r
=9	=9
8E-\L 8A-\ 8c\	8cc\L
8GG\	16dd-\L
.	16cc\
8E-\J 8B-\ 8d-\	16ee-\
.	16dd-\JJ
=10	=10
8E-\L 8B-\ 8d-\	16ccc\LL
.	16bb-\
8GG\	16dd-\
.	16cc\
8E-\J 8B-\ 8d-\	16ee-\
.	16dd-\JJ
=11	=11
8E-\L 8B-\ 8d-\	16ccc\LL
.	16bb-\
8AA-\	16cc\
.	16cc-\
8E-\J 8A-\ 8c\	16dd-\
.	16ccn\JJ
=12	=12
8E-\L 8A-\ 8c\	16bb-\LL
.	16aa-\
8AA-\	16cc\
.	16cc-\
8E-\J 8A-\ 8c\	16dd-\
.	16ccn\JJ
=13	=13
8E-\L 8A-\ 8c\	16bb-\LL
.	16aa-\
8BB-\	16ddn\
.	16ee-\
8A-\J 8B-\ 8dn\	16ff\
.	16gg\JJ
=14	=14
8A-\L 8B-\ 8dn\	16aa-\LL
.	16aan\
8BB-\	16bb-\
.	16ccc-\
8A-\J 8B-\ 8d\	16dddn\
.	16cccn\JJ
=15	=15
8A-\L 8B-\ 8dn\	16bb-\LL
.	16aa-\
8E-\	16aa-\
.	16gg\
8G\J 8B-\ 8e-\	16gg\
.	16gg-\JJ
=16	=16
8G\L 8B-\ 8e-\	16gg-\LL
.	16ff\
8E-\	16ff\
.	16een\
8G\J 8B-\ 8e-\	16ee\
*	*MM142
.	16ee-\JJ
=17	=17
8G\L 8B-\ 8e-\	16ee-\LL
.	16ddn\
*	*MM134
8GG\	16dd-\
.	16cc\
8E-\J 8B-\ 8d-\	16ee-\
.	16dd-\JJ
=18	=18
8E-\L 8B-\ 8d-\	16ccc\LL
.	16bb-\
8GG\	16dd-\
.	16cc\
8E-\J 8B-\ 8d-\	16ee-\
.	16dd-\JJ
=19	=19
8E-\L 8B-\ 8d-\	16ccc\LL
.	16bb-\
8AA-\	16cc\
.	16cc-\
8E-\J 8A-\ 8c\	16dd-\
.	16ccn\JJ
=20	=20
8E-\L 8A-\ 8c\	16bb-\LL
.	16aa-\
8AA-\	16cc\
.	16cc-\
8E-\J 8A-\ 8c\	16dd-\
.	16ccn\JJ
=21	=21
8E-\L 8A-\ 8c\	16bb-\LL
.	16aa-\
8EE-\	16b-\
.	16an\
8E-\J 8G\ 8d-\	16cc\
.	16b-\JJ
=22	=22
8E-\L 8G\ 8d-\	16dd-\LL
.	16cc\
8EE-\	16ee-\
.	16dd-\
8E-\J 8B-\ 8d-\	16gg\
.	16ff\JJ
=23	=23
8E-\L 8B-\ 8d-\	16dd-\LL
.	16g\
8AA-\	16a-\
.	16an\
8E-\J 8A-\ 8c\	16b-\
.	16cc-\JJ
=24	=24
8E-\L 8A-\ 8c\	16cc/LL
.	16a-/J
8AA-\	8e-/J
8E-\J 8A-\ 8c\	8r
=25	=25
8E-\L 8A-\ 8c\	8cc\L
8GG\	16dd-\L
.	16cc\
8E-\J 8B-\ 8d-\	16ee-\
.	16dd-\JJ
=26	=26
8E-\L 8B-\ 8d-\	16ccc\LL
.	16bb-\
8GG\	16dd-\
.	16cc\
8E-\J 8B-\ 8d-\	16ee-\
.	16dd-\JJ
=27	=27
8E-\L 8B-\ 8d-\	16ccc\LL
.	16bb-\
8AA-\	16cc\
.	16cc-\
8E-\J 8A-\ 8c\	16dd-\
.	16ccn\JJ
=28	=28
!!pagebreak:original
8E-\L 8A-\ 8c\	16bb-\LL
.	16aa-\
8AA-\	16cc\
.	16cc-\
8E-\J 8A-\ 8c\	16dd-\
.	16ccn\JJ
=29	=29
8E-\L 8A-\ 8c\	16bb-\LL
.	16aa-\
8D-\	16b-\
.	16dd-\
8F\J 8B-\ 8d-\	16cc\
.	16ee-\JJ
=30	=30
8F\L 8B-\ 8d-\	16dd-\LL
.	16ff\
8D-\	16een\
.	16gg\
8F\J 8B-\ 8d-\	16ff\
.	16bb-\JJ
=31	=31
8F\L 8B-\ 8d-\	16aan\LL
.	16ccc\
8EE-\	16bb-\
.	16ddd-\
8E-\J 8B-\ 8d-\	16ccc\
.	16eee-\JJ
=32	=32
8E-\L 8B-\ 8d-\	16ddd-\LL
.	16ggg\J
8AA-\	8aaa-\J
8E-\J 8A-\ 8c\	8r
=33	=33
8r	8ccc\L
8C/	16bb-\L
.	16ccc\
8r	16bb-\
.	16aa-\JJ
=34	=34
8B-\ 8c\ 8en\	16gg\LL
.	16ccc\
4F\ 4A-\ 4c\ 4f\	16aa-\
.	16bb-\
.	16aa-\
.	16gg\JJ
=35	=35
8F\ 8A-\ 8c\ 8f\	16ff\LL
.	16ccc\
4F\ 4B-\ 4c\ 4en\	16gg\
.	16cc\
.	16dd-\
.	16cc\JJ
=36	=36
8F\ 8B-\ 8c\ 8en\	16aa-\LL
.	16gg\
4F\ 4A-\ 4c\ 4f\	16ff\
.	16cc\
.	16dd-\
.	16cc\JJ
=37	=37
8F\L 8A-\ 8c\ 8f\	16aa-\LL
.	16ccc\
8C\	16bb-\
.	16ccc\
8B-\J 8c\ 8en\	16bb-\
.	16aa-\JJ
=38	=38
8B-\L 8c\ 8en\	16gg\LL
.	16ccc\
8F\	16aa-\
.	16bb-\
*clefG2	*
8A-\J 8c\ 8f\	16aa-\
.	16gg\JJ
=39	=39
8A-\L 8c\ 8f\	16ff\LL
.	16ccc\
*clefF4	*
8C\	16gg\
.	16cc\
8B-\J 8c\ 8en\	16dd-\
.	16cc\JJ
=40	=40
8B-\L 8c\ 8en\	16aa-\LL
.	16gg\J
8F\J 8A-\ 8c\ 8f\	8ff\
8r	16cc\L
.	16ff\JJ
=41	=41
8r	16aa-\LL
.	16ccc\
8C/	16bb-\
.	16ccc\
8r	16bb-\
.	16aa-\JJ
=42	=42
8B-\ 8c\ 8en\	16gg\LL
.	16ccc\
4F\ 4A-\ 4c\ 4f\	16aa-\
.	16bb-\
.	16aa-\
.	16gg\JJ
=43	=43
8F\ 8A-\ 8c\ 8f\	16ff\LL
.	16ccc\
4F\ 4B-\ 4c\ 4en\	16gg\
.	16cc\
.	16dd-\
.	16cc\JJ
=44	=44
8F\ 8B-\ 8c\ 8en\	16aa-\LL
.	16gg\
4F\ 4A-\ 4c\ 4f\	16ff\
.	16cc\
.	16dd-\
.	16cc\JJ
=45	=45
8F\L 8A-\ 8c\ 8f\	16aa-\LL
.	16ccc\
8C\	16bb-\
.	16ccc\
8B-\J 8c\ 8en\	16bb-\
.	16aa-\JJ
=46	=46
8B-\L 8c\ 8en\	16gg\LL
.	16ccc\
8F\	16aa-\
.	16bb-\
*clefG2	*
8A-\J 8c\ 8f\	16aa-\
.	16gg\JJ
=47	=47
8A-\L 8c\ 8f\	16ff\LL
.	16ccc\
*clefF4	*
8C\	16gg\
.	16cc\
8B-\J 8c\ 8en\	16dd-\
.	16cc\JJ
=48	=48
8B-\L 8c\ 8en\	16aa-\LL
.	16gg\
8F\	16ff\
.	16gg\
*clefG2	*
8A-\J 8c\ 8f\	16ff\
.	16een\JJ
=49	=49
8r	16ee-\LL
.	16dd-\
*clefF4	*
8GG\L	16dd-\
.	16cc\
8E-\J 8B-\ 8d-\	16ee-\
.	16dd-\JJ
=50	=50
8E-\L 8B-\ 8d-\	16ccc\LL
.	16bb-\
8GG\	16dd-\
.	16cc\
8E-\J 8B-\ 8d-\	16ee-\
.	16dd-\JJ
=51	=51
8E-\L 8B-\ 8d-\	16ccc\LL
.	16bb-\
8AA-\	16cc\
.	16cc-\
8E-\J 8A-\ 8c\	16dd-\
.	16ccn\JJ
=52	=52
8E-\L 8A-\ 8c\	16bb-\LL
.	16aa-\
8AA-\	16cc\
.	16cc-\
8E-\J 8A-\ 8c\	16dd-\
.	16ccn\JJ
=53	=53
8E-\L 8A-\ 8c\	16bb-\LL
.	16aa-\
8EE-\	16b-\
.	16an\
8E-\J 8G\ 8d-\	16cc\
.	16b-\JJ
=54	=54
8E-\L 8G\ 8d-\	16dd-\LL
.	16cc\
8EE-\	16ee-\
.	16dd-\
8E-\J 8B-\ 8d-\	16gg\
.	16ff\JJ
=55	=55
8E-\L 8B-\ 8d-\	16dd-\LL
.	16g\
8AA-\	16a-\
.	16an\
8E-\J 8A-\ 8c\	16b-\
.	16cc-\JJ
=56	=56
8E-\L 8A-\ 8c\	16cc/LL
.	16a-/J
8AA-\	8e-/J
8E-\J 8A-\ 8c\	8r
=57	=57
8E-\L 8A-\ 8c\	8cc\L
8GG\	16dd-\L
.	16cc\
8E-\J 8B-\ 8d-\	16ee-\
.	16dd-\JJ
=58	=58
8E-\L 8B-\ 8d-\	16ccc\LL
.	16bb-\
8GG\	16dd-\
.	16cc\
8E-\J 8B-\ 8d-\	16ee-\
.	16dd-\JJ
=59	=59
!!pagebreak:original
8E-\L 8B-\ 8d-\	16ccc\LL
.	16bb-\
8AA-\	16cc\
.	16cc-\
8E-\J 8A-\ 8c\	16dd-\
.	16ccn\JJ
=60	=60
8E-\L 8A-\ 8c\	16bb-\LL
.	16aa-\
8AA-\	16cc\
.	16cc-\
8E-\J 8A-\ 8c\	16dd-\
.	16ccn\JJ
=61	=61
8E-\L 8A-\ 8c\	16bb-\LL
.	16aa-\
8D-\	16b-\
.	16dd-\
8F\J 8B-\ 8d-\	16cc\
.	16ee-\JJ
=62	=62
8F\L 8B-\ 8d-\	16dd-\LL
.	16ff\
8D-\	16een\
.	16gg\
8F\J 8B-\ 8d-\	16ff\
.	16bb-\JJ
=63	=63
8F\L 8B-\ 8d-\	16aan\LL
.	16ccc\
8EE-\	16bb-\
.	16ddd-\
8E-\J 8B-\ 8d-\	16ccc\
.	16eee-\JJ
=64	=64
8E-\L 8B-\ 8d-\	16ddd-\LL
.	16ggg\J
8AA-\	8aaa-\J
8E-\J 8A-\ 8c\	8r
=65	=65
8r	8a-/L
*clefG2	*
4A-/ 4c/ 4g-/	8a-/
.	16a-/L
.	16a-/JJ
=66	=66
8A-\L 8c\ 8g-\	8a-\L
*clefF4	*
8D-\	8a-\
8d-\J 8f\	16dd-\L
.	16ff\JJ
=67	=67
8A-/L	8aa-\L
8AA-/	8ee-\
*clefG2	*
8c/J 8g-/	16aa-\L
.	16ee-\JJ
=68	=68
8A-/L	8a-\L
*clefF4	*
8D-/	8dd-\
*clefG2	*
8d-/J 8f/	16a-\L
.	16dd-\JJ
=69	=69
8A-/	8ff\L
4A-/ 4c/ 4g-/	16a-\L
.	16a-\
.	16a-\
.	16a-\JJ
=70	=70
8A-\L 8c\ 8g-\	8a-\L
*clefF4	*
8D-\	16dd-\L
.	16a-\
8d-\J 8f\	16dd-\
.	16ff\JJ
=71	=71
8A-/L	8aa-\L
8AA-/	8ee-\
*clefG2	*
8c/J 8g-/	16aa-\L
.	16ee-\JJ
=72	=72
8A-\L	8a-/
*clefF4	*
8D-\	4dd-\
8d-\J 8f\	.
=73	=73
8r	16f/LL
.	16g-/J
*clefG2	*
4A-/ 4c/ 4g-/	8a-/
.	16a-/L
.	16a-/JJ
=74	=74
8A-\L 8c\ 8g-\	8a-\L
*clefF4	*
8D-\	8a-\
8d-\J 8f\	16dd-\L
.	16ff\JJ
=75	=75
8A-/L	8aa-\L
8AA-/	8ee-\
*clefG2	*
8c/J 8g-/	16aa-\L
.	16ee-\JJ
=76	=76
8A-/L	8a-\L
*clefF4	*
8D-/	8dd-\
*clefG2	*
8d-/J 8f/	16a-\L
.	16dd-\JJ
=77	=77
8A-/	8ff\L
4A-/ 4c/ 4g-/	16a-\L
.	16a-\
.	16a-\
.	16a-\JJ
=78	=78
8A-\L 8c\ 8g-\	8a-\L
*clefF4	*
8D-\	16dd-\L
.	16a-\
8d-\J 8f\	16dd-\
.	16ff\JJ
=79	=79
8A-/L	8aa-\L
8AA-/	8ee-\
*clefG2	*
8c/J 8g-/	16aa-\L
.	16ee-\JJ
=80	=80
8A-/L	8a-/
8d-/ 8f/	4dd-\
*clefF4	*
8D-/J	.
=81	=81
*	*MM150
8r	8dd-\L
8GG\L	16dd-\L
.	16cc\
8E-\J 8B-\ 8d-\	16ee-\
.	16dd-\JJ
=82	=82
8E-\L 8B-\ 8d-\	16ccc\LL
.	16bb-\
8GG\	16dd-\
.	16cc\
8E-\J 8B-\ 8d-\	16ee-\
.	16dd-\JJ
=83	=83
8E-\L 8B-\ 8d-\	16ccc\LL
.	16bb-\
8AA-\	16cc\
.	16cc-\
8E-\J 8A-\ 8c\	16dd-\
.	16ccn\JJ
=84	=84
8E-\L 8A-\ 8c\	16bb-\LL
.	16aa-\
8AA-\	16cc\
.	16cc-\
8E-\J 8A-\ 8c\	16dd-\
.	16ccn\JJ
=85	=85
8E-\L 8A-\ 8c\	16bb-\LL
.	16aa-\
8EE-\	16b-\
.	16an\
8E-\J 8G\ 8d-\	16cc\
.	16b-\JJ
=86	=86
8E-\L 8G\ 8d-\	16dd-\LL
.	16cc\
8EE-\	16ee-\
.	16dd-\
8E-\J 8B-\ 8d-\	16gg\
.	16ff\JJ
=87	=87
8E-\L 8B-\ 8d-\	16dd-\LL
.	16g\
8AA-\	16a-\
.	16an\
8E-\J 8A-\ 8c\	16b-\
.	16cc-\JJ
=88	=88
8E-\L 8A-\ 8c\	16cc/LL
.	16a-/J
8AA-\	8e-/J
8E-\J 8A-\ 8c\	8r
=89	=89
8E-\L 8A-\ 8c\	8cc\L
8GG\	16dd-\L
.	16cc\
8E-\J 8B-\ 8d-\	16ee-\
.	16dd-\JJ
=90	=90
!!pagebreak:original
8E-\L 8B-\ 8d-\	16ccc\LL
.	16bb-\
8GG\	16dd-\
.	16cc\
8E-\J 8B-\ 8d-\	16ee-\
.	16dd-\JJ
=91	=91
8E-\L 8B-\ 8d-\	16ccc\LL
.	16bb-\
8AA-\	16cc\
.	16cc-\
8E-\J 8A-\ 8c\	16dd-\
.	16ccn\JJ
=92	=92
8E-\L 8A-\ 8c\	16bb-\LL
.	16aa-\
8AA-\	16cc\
.	16cc-\
8E-\J 8A-\ 8c\	16dd-\
.	16ccn\JJ
=93	=93
8E-\L 8A-\ 8c\	16bb-\LL
.	16aa-\
8D-\	16b-\
.	16dd-\
8F\J 8B-\ 8d-\	16cc\
.	16ee-\JJ
=94	=94
8F\L 8B-\ 8d-\	16dd-\LL
.	16ff\
8D-\	16een\
.	16gg\
8F\J 8B-\ 8d-\	16ff\
.	16bb-\JJ
=95	=95
8F\L 8B-\ 8d-\	16aan\LL
.	16ccc\
8EE-\	16bb-\
.	16ddd-\
8E-\J 8B-\ 8d-\	16ccc\
.	16eee-\JJ
=96	=96
8E-\L 8B-\ 8d-\	16ddd-\LL
.	16ggg\J
8AA-\	8aaa-\J
[8E-\J [8A-\ [8c\	8r
=97	=97
8E-\] 8A-\] 8c\]	4.r
8r	.
8r	.
==	==
*-	*-
